build/img/project/Icon-5.svg

<svg id="Icon-5" viewBox="0 0 72 72"  xmlns="http://www.w3.org/2000/svg">
<path fill-rule="evenodd" clip-rule="evenodd" d="M37.1241 6.00098C43.8921 6.00098 49.9341 10.3 52.1511 16.702C52.5591 17.875 51.9351 19.156 50.7591 19.564C49.5861 19.975 48.3051 19.348 47.8971 18.172C46.3101 13.585 41.9751 10.501 37.1151 10.501H37.0731C30.7971 10.501 25.6851 15.583 25.6581 21.853L25.656 25.879L48.552 25.8811C56.064 25.8811 62.178 31.9951 62.178 39.5101V52.3741C62.178 59.8891 56.064 66.0031 48.552 66.0031H25.626C18.111 66.0031 12 59.8891 12 52.3741V39.5101C12 33.5599 15.831 28.488 21.1566 26.6338L21.1581 21.904C21.1971 13.09 28.3251 6.00098 37.0641 6.00098H37.1241ZM48.552 30.3811H25.626C20.592 30.3811 16.5 34.4761 16.5 39.5101V52.3741C16.5 57.4081 20.592 61.5031 25.626 61.5031H48.552C53.583 61.5031 57.678 57.4081 57.678 52.3741V39.5101C57.678 34.4761 53.583 30.3811 48.552 30.3811ZM37.0899 40.3585C38.3319 40.3585 39.3399 41.3665 39.3399 42.6085V49.2745C39.3399 50.5165 38.3319 51.5245 37.0899 51.5245C35.8479 51.5245 34.8399 50.5165 34.8399 49.2745V42.6085C34.8399 41.3665 35.8479 40.3585 37.0899 40.3585Z"/>
</svg>

<svg id="Icon-5" viewBox="0 0 72 72" xmlns="http://www.w3.org/2000/svg"><path fill-rule="evenodd" clip-rule="evenodd" d="M37.124 6.001c6.768 0 12.81 4.299 15.027 10.701a2.25 2.25 0 01-1.392 2.862 2.247 2.247 0 01-2.862-1.392 11.414 11.414 0 00-10.782-7.671h-.042c-6.276 0-11.388 5.082-11.415 11.352l-.002 4.026 22.896.002c7.512 0 13.626 6.114 13.626 13.63v12.863c0 7.515-6.114 13.63-13.626 13.63H25.626C18.111 66.003 12 59.888 12 52.373V39.51c0-5.95 3.831-11.022 9.157-12.876l.001-4.73c.04-8.814 7.167-15.903 15.906-15.903h.06zm11.428 24.38H25.626c-5.034 0-9.126 4.095-9.126 9.13v12.863c0 5.034 4.092 9.13 9.126 9.13h22.926c5.031 0 9.126-4.096 9.126-9.13V39.51c0-5.034-4.095-9.129-9.126-9.129zM37.09 40.358a2.25 2.25 0 012.25 2.25v6.667a2.25 2.25 0 01-4.5 0v-6.666a2.25 2.25 0 012.25-2.25z"/></svg>
